pages/main-page/img/coffee.svg

<svg width="14" height="18" viewBox="0 0 14 18" fill="none" xmlns="http://www.w3.org/2000/svg">
<path d="M12.3371 3.95374C12.3211 4.26493 12.2436 4.56985 12.1088 4.85083C11.9741 5.13181 11.785 5.38324 11.5524 5.59057C10.1198 6.66576 8.37694 7.24703 6.58576 7.24703C4.79458 7.24703 3.05178 6.66576 1.6192 5.59057C1.37875 5.38501 1.18452 5.13088 1.04927 4.84491C0.91401 4.55894 0.840833 4.24758 0.834473 3.9313C0.834473 2.11508 3.413 0.612786 6.59698 0.612786C7.61063 0.534783 8.62835 0.697222 9.56737 1.08685C10.5064 1.47649 11.3402 2.0823 12.0008 2.85503V2.85503C12.1577 3.11694 12.2642 3.40596 12.3147 3.70709C12.3147 3.70709 12.3371 3.86405 12.3371 3.95374ZM11.799 3.95374C11.799 3.95374 11.799 3.95374 11.799 3.77436C11.642 2.20479 9.37739 0.949109 6.61943 0.949109C3.86147 0.949109 1.57437 2.20479 1.41741 3.77436V3.95374C1.41571 4.4225 1.58284 4.87619 1.88826 5.2318C3.20783 6.34766 4.88009 6.95991 6.60821 6.95991C8.33633 6.95991 10.0086 6.34766 11.3282 5.2318C11.6301 4.87418 11.7968 4.4218 11.799 3.95374V3.95374Z" fill="#EAEAF1"/>
<path d="M11.3057 5.23191C10.7266 4.6702 10.0422 4.22849 9.29188 3.93219C8.54151 3.63589 7.73993 3.49083 6.93331 3.50537H6.23822C5.4316 3.49083 4.63008 3.63589 3.87971 3.93219C3.12934 4.22849 2.44496 4.6702 1.86588 5.23191C1.56046 4.8763 1.39333 4.42261 1.39503 3.95385V3.77447C1.55199 2.2049 3.8166 0.949219 6.59698 0.949219C9.37736 0.949219 11.6196 2.2049 11.7766 3.77447C11.7766 3.77447 11.7766 3.77447 11.7766 3.95385C11.7743 4.42191 11.6077 4.87429 11.3057 5.23191V5.23191Z" fill="#BFBFD2"/>
<path d="M6.93314 3.50685C7.73977 3.49231 8.54134 3.63737 9.29171 3.93367C10.0421 4.22997 10.7265 4.67168 11.3055 5.23339C9.98598 6.34925 8.31372 6.9615 6.5856 6.9615C4.85748 6.9615 3.18529 6.34925 1.86572 5.23339C2.4448 4.67168 3.12918 4.22997 3.87955 3.93367C4.62992 3.63737 5.43143 3.49231 6.23805 3.50685H6.93314Z" fill="#7A3D00"/>
<path d="M12.5162 8.95242C12.9714 8.36934 13.2952 7.69481 13.4655 6.97499C13.6357 6.25517 13.6485 5.50705 13.5028 4.78185C13.4266 4.50853 13.2745 4.26238 13.0642 4.07191C12.8539 3.88143 12.5939 3.75444 12.3144 3.70558C12.2639 3.40445 12.1574 3.11543 12.0005 2.85352C12.395 2.9629 12.7469 3.18967 13.0095 3.50375C13.3498 3.87698 13.5963 4.3258 13.7289 4.81315C13.8615 5.3005 13.8762 5.81239 13.7719 6.30655C13.5812 7.35441 13.1515 8.34423 12.5162 9.19907V8.95242Z" fill="#17C8FF"/>
<path d="M13.413 4.78433C13.5587 5.50953 13.5459 6.25765 13.3757 6.97747C13.2054 7.69729 12.8816 8.37182 12.4264 8.9549C12.4264 6.71266 12.2471 4.22376 12.2471 3.97712C12.2471 3.97712 12.2471 3.82016 12.2471 3.73047C12.5198 3.78135 12.773 3.90675 12.9788 4.09276C13.1846 4.27877 13.3349 4.51814 13.413 4.78433Z" fill="#0089CE"/>
<path d="M12.6506 13.5508C12.6506 14.3356 11.933 17.7214 6.59648 17.7214C5.67916 17.8063 4.75438 17.6897 3.8868 17.3799C3.01923 17.0701 2.22985 16.5744 1.57388 15.9276C0.995599 15.2567 0.628897 14.4297 0.52002 13.5508C0.694023 14.3946 1.18312 15.1403 1.88775 15.6361C3.28105 16.551 4.93262 16.9914 6.59648 16.8917C11.1707 16.8917 12.516 14.6271 12.6506 13.5508Z" fill="#0098DB"/>
<path d="M12.6506 13.3932V13.5277C12.516 14.604 11.1482 16.8687 6.59648 16.8687C4.93262 16.9683 3.28105 16.5279 1.88775 15.613C1.18312 15.1173 0.694023 14.3715 0.52002 13.5277V13.5277C0.52002 12.5411 0.833966 4.08789 0.833966 4.08789C0.840327 4.40417 0.913504 4.71553 1.04876 5.0015C1.18402 5.28748 1.37824 5.54157 1.6187 5.74713C3.05128 6.82232 4.79408 7.40359 6.58525 7.40359C8.37643 7.40359 10.1193 6.82232 11.5519 5.74713C11.7845 5.5398 11.9736 5.28837 12.1083 5.00739C12.2431 4.72641 12.3206 4.42149 12.3366 4.1103C12.3366 4.35695 12.3367 6.75615 12.516 9.08808V9.33473C12.6057 11.1285 12.6506 12.9672 12.6506 13.3932Z" fill="#00ADEF"/>
</svg>

<svg width="14" height="18" fill="none" xmlns="http://www.w3.org/2000/svg"><path d="M12.337 3.954a2.353 2.353 0 0 1-.785 1.637 8.274 8.274 0 0 1-9.933 0 2.242 2.242 0 0 1-.785-1.66C.834 2.115 3.413.613 6.597.613a6.458 6.458 0 0 1 5.404 2.242c.157.262.263.551.314.852 0 0 .022.157.022.247Zm-.538 0v-.18C11.642 2.204 9.377.95 6.619.95c-2.758 0-5.045 1.256-5.202 2.825v.18a1.95 1.95 0 0 0 .471 1.278 7.31 7.31 0 0 0 9.44 0c.302-.358.469-.81.471-1.278Z" fill="#EAEAF1"/><path d="M11.306 5.232a6.122 6.122 0 0 0-4.373-1.727h-.695a6.121 6.121 0 0 0-4.372 1.727 1.95 1.95 0 0 1-.471-1.278v-.18C1.552 2.204 3.817.95 6.597.95s5.023 1.256 5.18 2.825v.18c-.003.468-.17.92-.471 1.278Z" fill="#BFBFD2"/><path d="M6.933 3.507a6.121 6.121 0 0 1 4.373 1.726 7.31 7.31 0 0 1-9.44 0 6.121 6.121 0 0 1 4.372-1.726h.695Z" fill="#7A3D00"/><path d="M12.516 8.952a5.134 5.134 0 0 0 .987-4.17 1.502 1.502 0 0 0-1.189-1.076 2.445 2.445 0 0 0-.313-.852c.394.109.746.336 1.008.65a3.184 3.184 0 0 1 .763 2.803 6.93 6.93 0 0 1-1.256 2.892v-.247Z" fill="#17C8FF"/><path d="M13.413 4.784a5.135 5.135 0 0 1-.987 4.17c0-2.241-.179-4.73-.179-4.977V3.73a1.502 1.502 0 0 1 1.166 1.054Z" fill="#0089CE"/><path d="M12.65 13.55c0 .786-.717 4.171-6.054 4.171a6.324 6.324 0 0 1-5.022-1.793A4.485 4.485 0 0 1 .52 13.55c.174.844.663 1.59 1.368 2.085a7.736 7.736 0 0 0 4.708 1.256c4.575 0 5.92-2.265 6.055-3.341Z" fill="#0098DB"/><path d="M12.65 13.393v.135c-.134 1.076-1.502 3.34-6.054 3.34a7.737 7.737 0 0 1-4.708-1.255A3.386 3.386 0 0 1 .52 13.528c0-.987.314-9.44.314-9.44a2.242 2.242 0 0 0 .785 1.66 8.274 8.274 0 0 0 9.933 0 2.354 2.354 0 0 0 .785-1.638c0 .247 0 2.646.179 4.978v.247c.09 1.793.135 3.632.135 4.058Z" fill="#00ADEF"/></svg>
